optimized/solid/external-link.svg

<svg xmlns="http://www.w3.org/2000/svg" viewBox="0 0 20 20" fill="currentColor" aria-hidden="true">
  <path d="M11 3C10.4477 3 10 3.44772 10 4C10 4.55228 10.4477 5 11 5H13.5858L7.29289 11.2929C6.90237 11.6834 6.90237 12.3166 7.29289 12.7071C7.68342 13.0976 8.31658 13.0976 8.70711 12.7071L15 6.41421V9C15 9.55228 15.4477 10 16 10C16.5523 10 17 9.55228 17 9V4C17 3.44772 16.5523 3 16 3H11Z"/>
  <path d="M5 5C3.89543 5 3 5.89543 3 7V15C3 16.1046 3.89543 17 5 17H13C14.1046 17 15 16.1046 15 15V12C15 11.4477 14.5523 11 14 11C13.4477 11 13 11.4477 13 12V15H5V7L8 7C8.55228 7 9 6.55228 9 6C9 5.44772 8.55228 5 8 5H5Z"/>
</svg>

<svg xmlns="http://www.w3.org/2000/svg" viewBox="0 0 20 20" fill="currentColor" aria-hidden="true">
  <path d="M11 3a1 1 0 100 2h2.586l-6.293 6.293a1 1 0 101.414 1.414L15 6.414V9a1 1 0 102 0V4a1 1 0 00-1-1h-5z"/>
  <path d="M5 5a2 2 0 00-2 2v8a2 2 0 002 2h8a2 2 0 002-2v-3a1 1 0 10-2 0v3H5V7h3a1 1 0 000-2H5z"/>
</svg>
